X:155
T:Bon jour, bon mois
C:Guillaume Dufay
C:Transcript par N. Nakamura, 2008
M:3/8
L:1/8
K:F
V:1 name=Superius
G G G | D2G | Ad2 | cB2 | A2G | AEz | cB>A |
A>GG/F/ | A2z | A A A | B2A | Gc2 | BA2 | G>FF/E/ |
G3 | zzG | FE2 | D2F | GBE | A G>F | A z D | E/F/G/F//G//A/F/ | 
G/A/B/A//B//c/d/ | G/B/A/F/G/A/ | F/E//F//D/C/C/B,/ | D3 || z3 | D E F | G2z |
G G G | c2B | A2z | d d d | G2B | [M:6/8] c> B A G F2 |
E z D GA>D | [M:3/8] D z B | Ad>c | BA>G | cB/G/A/B/ | GFG/E/ | [M:6/8] G6 |]
V:2 name=Contra
G3 | B3 | A2B | AG2 | Ad2 | c2B | AG2 | 
AE2 | zF2 | D2D | dec | ze2 | f2e | dc2 |
d3 | A2A | A2A | D2d | cf2 | ed2 | c2B | AGD |
G z A |d2d | c/B/AG | A3- || A2A | B2c | zd2 |
e2d | e3 | f3 | d3 | z3 | [M:3/4] A4D2 |
c2d2D2 | [M:3/8] dBG | zDE/F/ | G z A | FGD | d2c | [M:6/8] d6 |]
V:3 name=Tenor treble-8
z3 | G G G | D2G | Ad2 | cB2 | A2G | AE2 |
cB2 | A z A | d2d | G2A | c2c | d2c | BA2 |
G2z | c3 | c2c | d2d | ed2 | cB2 | A2G | cBA | 
zGF | GD2 | F2E | D2z || D E F | G2z | G G G |
c2B | A2z | d d d | G2B | ce e | [M:3/4] c4d2 |
A2B2A2 | [M:3/8] zG2 | d2G | zdc | z_ed | B2A | [M:6/8] G6 |]





